packages/bezier-icons/icons/thread.svg

<svg width="24" height="24" viewBox="0 0 24 24" fill="none" xmlns="http://www.w3.org/2000/svg">
<path d="M16.7896 11.2698C16.7031 11.2281 16.6156 11.1885 16.5271 11.151C16.3729 8.30625 14.8187 6.67812 12.2083 6.66146C12.1969 6.66146 12.1844 6.66146 12.1729 6.66146C10.6115 6.66146 9.31354 7.32812 8.51458 8.54063L9.94999 9.525C10.5469 8.61979 11.4833 8.42604 12.174 8.42604C12.1823 8.42604 12.1896 8.42604 12.1979 8.42604C13.0573 8.43125 13.7052 8.68125 14.125 9.16875C14.4302 9.52396 14.6344 10.0135 14.7354 10.6323C13.974 10.5031 13.15 10.4625 12.2687 10.5135C9.78749 10.6562 8.1927 12.1031 8.29895 14.1146C8.35312 15.1344 8.86145 16.0125 9.7302 16.5854C10.4646 17.0698 11.4094 17.3073 12.3927 17.2531C13.6906 17.1823 14.7083 16.6865 15.4187 15.7812C15.9583 15.0938 16.299 14.2031 16.45 13.0802C17.0687 13.4531 17.5271 13.9448 17.7802 14.5354C18.2104 15.5385 18.2354 17.1885 16.8896 18.5333C15.7104 19.7115 14.2927 20.2208 12.151 20.2365C9.77499 20.2188 7.97812 19.4573 6.80937 17.9719C5.71562 16.5813 5.14999 14.5719 5.12916 12.001C5.14999 9.43021 5.71562 7.42083 6.80937 6.03021C7.97812 4.54479 9.77499 3.78333 12.151 3.76562C14.5437 3.78333 16.3729 4.54896 17.5854 6.04167C18.1802 6.77396 18.6281 7.69375 18.924 8.76667L20.6062 8.31771C20.2479 6.99687 19.6844 5.85833 18.9167 4.91458C17.3625 3.00104 15.0875 2.02083 12.1573 2H12.1458C9.22083 2.01979 6.97187 3.00417 5.46145 4.925C4.11666 6.63438 3.42291 9.0125 3.39999 11.9927V12V12.0073C3.42291 14.9885 4.11666 17.3667 5.46145 19.075C6.97187 20.9958 9.22083 21.9792 12.1458 22H12.1573C14.7573 21.9823 16.5896 21.301 18.1 19.7927C20.075 17.8187 20.0156 15.3458 19.3646 13.8271C18.8979 12.7385 18.0073 11.8542 16.7896 11.2698ZM12.3 15.4906C11.2125 15.5521 10.0823 15.0635 10.0271 14.0177C9.98541 13.2427 10.5792 12.3771 12.3667 12.274C12.5719 12.2625 12.7719 12.2562 12.9698 12.2562C13.6198 12.2562 14.2271 12.3198 14.7792 12.4396C14.5729 15.0125 13.3646 15.4302 12.3 15.4885V15.4906Z" fill="#313234"/>
</svg>

<svg xmlns="http://www.w3.org/2000/svg" width="24" height="24" fill="none" viewBox="0 0 24 24"><path fill="#313234" d="M16.79 11.27a6 6 0 0 0-.263-.119c-.154-2.845-1.708-4.473-4.319-4.49h-.035c-1.562 0-2.86.667-3.658 1.88l1.435.984c.597-.905 1.533-1.099 2.224-1.099h.024c.86.005 1.507.255 1.927.743q.459.534.61 1.463-1.143-.195-2.466-.118c-2.482.142-4.076 1.59-3.97 3.6.054 1.02.562 1.898 1.431 2.471.735.485 1.68.722 2.663.668 1.298-.07 2.315-.567 3.026-1.472.54-.687.88-1.578 1.031-2.7.619.372 1.077.864 1.33 1.454.43 1.004.455 2.654-.89 3.998-1.18 1.178-2.597 1.688-4.739 1.703-2.376-.017-4.173-.779-5.342-2.264-1.093-1.39-1.659-3.4-1.68-5.971.021-2.57.587-4.58 1.68-5.97 1.17-1.486 2.966-2.248 5.342-2.265 2.393.017 4.222.783 5.434 2.276.595.732 1.043 1.652 1.339 2.725l1.682-.45c-.358-1.32-.922-2.459-1.69-3.402C17.364 3 15.089 2.02 12.158 2h-.011C9.22 2.02 6.972 3.004 5.46 4.925 4.117 6.635 3.423 9.012 3.4 11.993v.014c.023 2.982.717 5.36 2.061 7.068 1.51 1.92 3.76 2.904 6.685 2.925h.011c2.6-.018 4.433-.699 5.943-2.207 1.975-1.974 1.916-4.447 1.265-5.966-.467-1.088-1.358-1.973-2.575-2.557m-4.49 4.22c-1.088.062-2.218-.427-2.273-1.472-.042-.775.552-1.64 2.34-1.744q.307-.017.603-.018c.65 0 1.257.064 1.81.184-.207 2.573-1.415 2.99-2.48 3.049z"/></svg>
